images/logo.svg

<svg width="105" height="40" viewBox="0 0 105 40" fill="none" xmlns="http://www.w3.org/2000/svg">
<g clip-path="url(#clip0_2_2568)">
<path opacity="0.4" d="M22.737 20.1912L14.326 0C14.326 0 5.69015 18.3229 17.3699 30.4403C23.4191 25.2428 22.737 20.1912 22.737 20.1912Z" fill="url(#paint0_linear_2_2568)"/>
<path opacity="0.4" d="M22.6825 20.2843L28.2535 0C28.2535 0 5.17332 6.76143 17.3104 30.4268C24.4738 27.444 22.6825 20.2843 22.6825 20.2843Z" fill="url(#paint1_linear_2_2568)"/>
<path opacity="0.4" d="M22.6825 20.2842L6.76487 4.37476C6.76487 4.37476 5.37213 19.2897 17.3103 30.4268C23.4787 26.6481 22.6825 20.2842 22.6825 20.2842Z" fill="url(#paint2_linear_2_2568)"/>
<path opacity="0.4" d="M22.6825 20.2843L1.59161 11.7334C1.59161 11.7334 4.17826 22.4722 17.3103 30.4269C21.8871 25.455 22.6825 20.2843 22.6825 20.2843Z" fill="url(#paint3_linear_2_2568)"/>
<path opacity="0.4" d="M22.6825 20.2842L0 20.6825C0 20.6825 3.78055 26.4494 17.3103 30.4267C22.6825 24.8586 22.6825 20.2842 22.6825 20.2842Z" fill="url(#paint4_linear_2_2568)"/>
<path opacity="0.4" d="M22.6825 20.2842L2.98438 30.0293C2.98438 30.0293 8.75419 34.2054 17.3104 30.4267C21.6874 26.6481 22.6825 20.2842 22.6825 20.2842Z" fill="url(#paint5_linear_2_2568)"/>
<path d="M35.6157 17.5001C35.6157 17.5001 32.6314 15.1135 29.0497 15.1135C21.6874 15.1135 22.6825 26.6481 10.1478 39.9722C13.7295 39.1764 30.2436 37.9831 30.2436 24.659C30.2436 21.08 30.6413 18.2959 35.6157 17.5001Z" fill="url(#paint6_linear_2_2568)"/>
<path d="M46.1782 8.755H41.1838V11.919H43.7593C44.8407 11.9335 45.6849 12.2165 46.292 12.7681C46.8991 13.3196 47.2027 14.0695 47.2027 15.0177C47.2027 15.9708 46.8968 16.7303 46.2849 17.2964C45.6731 17.8624 44.8383 18.1551 43.7806 18.1745H39.8107V7.6084H46.1782V8.755ZM41.1838 13.0656V17.0351H43.6811C44.3593 17.0351 44.8858 16.8513 45.2605 16.4836C45.6399 16.1159 45.8296 15.6224 45.8296 15.0032C45.8296 14.4081 45.647 13.9388 45.2818 13.5953C44.9214 13.2519 44.4067 13.0753 43.7379 13.0656H41.1838Z" fill="white"/>
<path d="M54.7725 15.4168H50.4327L49.458 18.1745H48.0493L52.005 7.6084H53.2002L57.163 18.1745H55.7614L54.7725 15.4168ZM50.8453 14.2702H54.367L52.6026 9.32825L50.8453 14.2702Z" fill="white"/>
<path d="M66.5186 18.1745H65.1455V13.2906H59.9234V18.1745H58.5574V7.6084H59.9234V12.1512H65.1455V7.6084H66.5186V18.1745Z" fill="white"/>
<path d="M71.634 13.4285H70.3746V18.1745H69.0087V7.6084H70.3746V12.2674H71.4419L75.0632 7.6084H76.7635L72.8078 12.7318L77.0552 18.1745H75.3833L71.634 13.4285Z" fill="white"/>
<path d="M79.6733 14.038V18.1745H78.3073V7.6084H82.1278C83.2614 7.6084 84.1487 7.90351 84.7889 8.4937C85.4341 9.08397 85.7562 9.86527 85.7562 10.8377C85.7562 11.8633 85.4408 12.6544 84.8099 13.2108C84.184 13.7623 83.2851 14.038 82.1136 14.038H79.6733ZM79.6733 12.8986H82.1278C82.8582 12.8986 83.4179 12.7245 83.8068 12.3762C84.1957 12.023 84.3904 11.515 84.3904 10.8523C84.3904 10.2233 84.1957 9.7202 83.8068 9.34284C83.4179 8.9654 82.8843 8.76951 82.2061 8.755H79.6733V12.8986Z" fill="white"/>
<path d="M95.4677 13.2326C95.4677 14.2679 95.2966 15.1726 94.9551 15.9467C94.6136 16.716 94.1304 17.3037 93.5036 17.7102C92.8777 18.1165 92.1478 18.3197 91.313 18.3197C90.4966 18.3197 89.7734 18.1165 89.1425 17.7102C88.5115 17.2989 88.0207 16.716 87.67 15.9612C87.3235 15.2017 87.1456 14.3236 87.1364 13.3269V12.565C87.1364 11.549 87.3093 10.6516 87.6558 9.87269C88.0023 9.09374 88.4906 8.49868 89.1215 8.08747C89.7566 7.67141 90.4824 7.46338 91.2987 7.46338C92.1285 7.46338 92.8593 7.66899 93.4894 8.08022C94.1253 8.48661 94.6136 9.07923 94.9551 9.85818C95.2966 10.6323 95.4677 11.5345 95.4677 12.565V13.2326ZM94.1085 12.5505C94.1085 11.2974 93.8619 10.3371 93.3685 9.6695C92.8752 8.99696 92.1855 8.66078 91.2987 8.66078C90.4354 8.66078 89.7549 8.99696 89.2566 9.6695C88.7632 10.3371 88.5099 11.266 88.4956 12.4562V13.2326C88.4956 14.4469 88.744 15.4024 89.2423 16.0991C89.7449 16.7909 90.4354 17.1368 91.313 17.1368C92.1948 17.1368 92.8777 16.8103 93.3618 16.1571C93.8451 15.4992 94.0943 14.5582 94.1085 13.3342V12.5505Z" fill="white"/>
<path d="M104.474 8.755H101.145V18.1745H99.7861V8.755H96.4636V7.6084H104.474V8.755Z" fill="white"/>
<path d="M49.682 33.8767H47.1726V23.5932H42.3119V33.8767H39.8107V21.5332H49.682V33.8767Z" fill="white"/>
<path d="M54.3842 29.5277V33.8767H51.8831V21.5332H56.6186C57.5301 21.5332 58.3306 21.7028 59.0198 22.0418C59.7146 22.3809 60.2481 22.8642 60.6205 23.4915C60.9929 24.1132 61.1791 24.8225 61.1791 25.6194C61.1791 26.8289 60.7706 27.7841 59.9535 28.4849C59.142 29.1801 58.0165 29.5277 56.577 29.5277H54.3842ZM54.3842 27.4675H56.6186C57.28 27.4675 57.7831 27.3093 58.1277 26.9928C58.4779 26.6763 58.6529 26.2242 58.6529 25.6363C58.6529 25.0317 58.4779 24.5428 58.1277 24.1698C57.7775 23.7967 57.294 23.6046 56.677 23.5932H54.3842V27.4675Z" fill="white"/>
<path d="M72.8763 27.9846C72.8763 29.1998 72.6651 30.2651 72.2427 31.1807C71.8202 32.0963 71.2144 32.8028 70.4251 33.3001C69.6414 33.7975 68.741 34.0461 67.7239 34.0461C66.7178 34.0461 65.8202 33.8003 65.0309 33.3086C64.2417 32.8169 63.6303 32.1161 63.1968 31.2061C62.7632 30.2905 62.5436 29.2392 62.5381 28.0524V27.442C62.5381 26.2268 62.7521 25.1587 63.1801 24.2374C63.6136 23.3105 64.2222 22.6013 65.0059 22.1095C65.7952 21.6122 66.6956 21.3635 67.7072 21.3635C68.7188 21.3635 69.6164 21.6122 70.4001 22.1095C71.1894 22.6013 71.798 23.3105 72.226 24.2374C72.6596 25.1587 72.8763 26.2241 72.8763 27.4335V27.9846ZM70.3417 27.4251C70.3417 26.1308 70.1139 25.1474 69.6581 24.4748C69.2024 23.8023 68.5521 23.466 67.7072 23.466C66.8679 23.466 66.2204 23.7994 65.7646 24.4663C65.3088 25.1276 65.0782 26.0997 65.0726 27.3826V27.9846C65.0726 29.245 65.3005 30.2227 65.7563 30.9179C66.2121 31.613 66.8679 31.9606 67.7239 31.9606C68.5631 31.9606 69.2079 31.6272 69.6581 30.9603C70.1083 30.2877 70.3362 29.3099 70.3417 28.027V27.4251Z" fill="white"/>
<path d="M81.9973 28.5272H77.195V31.8336H82.831V33.8767H74.6938V21.5332H82.8143V23.5932H77.195V26.535H81.9973V28.5272Z" fill="white"/>
<path d="M88.2582 28.8325H86.8159V33.8767H84.3149V21.5332H86.8159V26.4757H87.9587L90.9262 21.5332H93.9777L90.2349 27.3743L94.3695 33.8767H91.3852L88.2582 28.8325Z" fill="white"/>
<path d="M104.474 23.5932H100.756V33.8767H98.2549V23.5932H94.5868V21.5332H104.474V23.5932Z" fill="white"/>
</g>
<defs>
<linearGradient id="paint0_linear_2_2568" x1="11.2526" y1="15.2203" x2="22.7602" y2="15.2203" gradientUnits="userSpaceOnUse">
<stop offset="0.1177" stop-color="#7ACA37"/>
<stop offset="0.2561" stop-color="#70C53A"/>
<stop offset="0.4886" stop-color="#56B641"/>
<stop offset="0.7848" stop-color="#2C9F4E"/>
<stop offset="1" stop-color="#098C58"/>
</linearGradient>
<linearGradient id="paint1_linear_2_2568" x1="13.7832" y1="15.2134" x2="28.2538" y2="15.2134" gradientUnits="userSpaceOnUse">
<stop offset="0.1177" stop-color="#7ACA37"/>
<stop offset="0.2561" stop-color="#70C53A"/>
<stop offset="0.4886" stop-color="#56B641"/>
<stop offset="0.7848" stop-color="#2C9F4E"/>
<stop offset="1" stop-color="#098C58"/>
</linearGradient>
<linearGradient id="paint2_linear_2_2568" x1="6.71513" y1="17.4009" x2="22.7161" y2="17.4009" gradientUnits="userSpaceOnUse">
<stop offset="0.1177" stop-color="#7ACA37"/>
<stop offset="0.2561" stop-color="#70C53A"/>
<stop offset="0.4886" stop-color="#56B641"/>
<stop offset="0.7848" stop-color="#2C9F4E"/>
<stop offset="1" stop-color="#098C58"/>
</linearGradient>
<linearGradient id="paint3_linear_2_2568" x1="1.59179" y1="21.0802" x2="22.6827" y2="21.0802" gradientUnits="userSpaceOnUse">
<stop offset="0.1177" stop-color="#7ACA37"/>
<stop offset="0.2561" stop-color="#70C53A"/>
<stop offset="0.4886" stop-color="#56B641"/>
<stop offset="0.7848" stop-color="#2C9F4E"/>
<stop offset="1" stop-color="#098C58"/>
</linearGradient>
<linearGradient id="paint4_linear_2_2568" x1="0" y1="25.3556" x2="22.6826" y2="25.3556" gradientUnits="userSpaceOnUse">
<stop offset="0.1177" stop-color="#7ACA37"/>
<stop offset="0.2561" stop-color="#70C53A"/>
<stop offset="0.4886" stop-color="#56B641"/>
<stop offset="0.7848" stop-color="#2C9F4E"/>
<stop offset="1" stop-color="#098C58"/>
</linearGradient>
<linearGradient id="paint5_linear_2_2568" x1="2.98459" y1="26.1467" x2="22.6827" y2="26.1467" gradientUnits="userSpaceOnUse">
<stop offset="0.1177" stop-color="#7ACA37"/>
<stop offset="0.2561" stop-color="#70C53A"/>
<stop offset="0.4886" stop-color="#56B641"/>
<stop offset="0.7848" stop-color="#2C9F4E"/>
<stop offset="1" stop-color="#098C58"/>
</linearGradient>
<linearGradient id="paint6_linear_2_2568" x1="26.4749" y1="19.675" x2="20.1928" y2="35.5335" gradientUnits="userSpaceOnUse">
<stop offset="0.1177" stop-color="#7ACA37"/>
<stop offset="0.2561" stop-color="#70C53A"/>
<stop offset="0.4886" stop-color="#56B641"/>
<stop offset="0.7848" stop-color="#2C9F4E"/>
<stop offset="1" stop-color="#098C58"/>
</linearGradient>
<clipPath id="clip0_2_2568">
<rect width="104.54" height="40" fill="white"/>
</clipPath>
</defs>
</svg>

<svg width="105" height="40" fill="none" xmlns="http://www.w3.org/2000/svg"><g clip-path="url(#a)"><path opacity=".4" d="M22.737 20.191 14.326 0S5.69 18.323 17.37 30.44c6.05-5.197 5.367-10.249 5.367-10.249Z" fill="url(#b)"/><path opacity=".4" d="M22.683 20.284 28.253 0S5.174 6.761 17.31 30.427c7.164-2.983 5.373-10.143 5.373-10.143Z" fill="url(#c)"/><path opacity=".4" d="M22.683 20.284 6.765 4.374S5.372 19.29 17.31 30.428c6.169-3.779 5.373-10.143 5.373-10.143Z" fill="url(#d)"/><path opacity=".4" d="m22.683 20.284-21.091-8.55S4.178 22.471 17.31 30.426c4.577-4.972 5.373-10.143 5.373-10.143Z" fill="url(#e)"/><path opacity=".4" d="M22.683 20.284 0 20.683s3.78 5.766 17.31 9.744c5.373-5.568 5.373-10.143 5.373-10.143Z" fill="url(#f)"/><path opacity=".4" d="M22.683 20.284 2.983 30.03s5.77 4.176 14.326.398c4.377-3.779 5.373-10.143 5.373-10.143Z" fill="url(#g)"/><path d="M35.616 17.5s-2.985-2.386-6.566-2.386c-7.363 0-6.367 11.534-18.902 24.858 3.582-.796 20.096-1.989 20.096-15.313 0-3.579.397-6.363 5.372-7.159Z" fill="url(#h)"/><path d="M46.178 8.755h-4.994v3.164h2.575c1.082.014 1.926.297 2.533.85.607.55.91 1.3.91 2.249 0 .953-.305 1.712-.917 2.278-.612.566-1.447.86-2.504.878h-3.97V7.608h6.367v1.147Zm-4.994 4.31v3.97h2.497c.678 0 1.205-.184 1.58-.551.379-.368.569-.862.569-1.48 0-.596-.183-1.065-.548-1.409-.36-.343-.875-.52-1.544-.53h-2.554ZM54.773 15.417h-4.34l-.975 2.757h-1.409l3.956-10.566H53.2l3.963 10.566h-1.402l-.989-2.757Zm-3.928-1.147h3.522l-1.764-4.942-1.758 4.942ZM66.519 18.174h-1.374v-4.883h-5.222v4.883h-1.366V7.608h1.366v4.543h5.222V7.608h1.374v10.566ZM71.634 13.428h-1.26v4.746H69.01V7.608h1.366v4.66h1.067l3.621-4.66h1.7l-3.955 5.124 4.247 5.442h-1.672l-3.749-4.745ZM79.673 14.038v4.136h-1.366V7.608h3.82c1.134 0 2.022.296 2.662.886.645.59.967 1.371.967 2.344 0 1.025-.315 1.816-.946 2.373-.626.551-1.525.827-2.696.827h-2.44Zm0-1.14h2.455c.73 0 1.29-.173 1.679-.522.389-.353.583-.861.583-1.524 0-.629-.194-1.132-.583-1.51-.39-.377-.923-.572-1.6-.587h-2.534v4.144ZM95.468 13.233c0 1.035-.171 1.94-.513 2.714-.341.769-.825 1.357-1.451 1.763-.626.406-1.356.61-2.191.61-.816 0-1.54-.204-2.17-.61-.632-.411-1.122-.994-1.473-1.749-.347-.76-.524-1.637-.534-2.634v-.762c0-1.016.173-1.913.52-2.692.346-.78.835-1.374 1.465-1.786.636-.416 1.361-.624 2.178-.624.83 0 1.56.206 2.19.617.636.407 1.125 1 1.466 1.778.342.774.513 1.676.513 2.707v.668Zm-1.36-.683c0-1.253-.246-2.213-.74-2.88-.493-.673-1.182-1.01-2.07-1.01-.863 0-1.543.337-2.041 1.01-.494.667-.747 1.596-.761 2.786v.777c0 1.214.248 2.17.746 2.866.503.692 1.193 1.038 2.071 1.038.882 0 1.565-.327 2.049-.98.483-.658.732-1.599.747-2.823v-.784ZM104.474 8.755h-3.329v9.42h-1.359v-9.42h-3.322V7.608h8.01v1.147ZM49.682 33.877h-2.51V23.593h-4.86v10.284H39.81V21.533h9.871v12.344ZM54.384 29.528v4.349h-2.5V21.533h4.735c.911 0 1.712.17 2.4.509.696.339 1.23.822 1.602 1.45.372.621.558 1.33.558 2.127 0 1.21-.408 2.165-1.226 2.866-.811.695-1.937 1.043-3.376 1.043h-2.193Zm0-2.06h2.235c.661 0 1.164-.159 1.509-.475.35-.317.525-.769.525-1.357 0-.604-.175-1.093-.525-1.466-.35-.373-.834-.565-1.451-.577h-2.293v3.875ZM72.876 27.985c0 1.215-.21 2.28-.633 3.196-.423.915-1.029 1.622-1.818 2.12-.784.496-1.684.745-2.701.745-1.006 0-1.904-.246-2.693-.737-.79-.492-1.4-1.193-1.834-2.103-.434-.915-.653-1.967-.659-3.154v-.61c0-1.215.214-2.283.642-3.205.434-.926 1.042-1.636 1.826-2.127.79-.498 1.69-.747 2.701-.747 1.012 0 1.91.25 2.693.747.79.491 1.398 1.2 1.826 2.127.434.922.65 1.987.65 3.197v.55Zm-2.534-.56c0-1.294-.228-2.278-.684-2.95-.456-.673-1.106-1.009-1.95-1.009-.84 0-1.488.333-1.943 1-.456.662-.687 1.634-.692 2.917v.602c0 1.26.228 2.238.683 2.933.456.695 1.112 1.043 1.968 1.043.84 0 1.484-.334 1.934-1 .45-.673.678-1.651.684-2.934v-.602ZM81.997 28.527h-4.802v3.307h5.636v2.043h-8.137V21.533h8.12v2.06h-5.619v2.942h4.802v1.992ZM88.258 28.832h-1.442v5.045h-2.501V21.533h2.5v4.943h1.144l2.967-4.943h3.052l-3.743 5.841 4.135 6.503h-2.985l-3.127-5.045ZM104.474 23.593h-3.718v10.284h-2.501V23.593h-3.668v-2.06h9.887v2.06Z" fill="#fff"/></g><defs><linearGradient id="b" x1="11.253" y1="15.22" x2="22.76" y2="15.22" gradientUnits="userSpaceOnUse"><stop offset=".118" stop-color="#7ACA37"/><stop offset=".256" stop-color="#70C53A"/><stop offset=".489" stop-color="#56B641"/><stop offset=".785" stop-color="#2C9F4E"/><stop offset="1" stop-color="#098C58"/></linearGradient><linearGradient id="c" x1="13.783" y1="15.213" x2="28.254" y2="15.213" gradientUnits="userSpaceOnUse"><stop offset=".118" stop-color="#7ACA37"/><stop offset=".256" stop-color="#70C53A"/><stop offset=".489" stop-color="#56B641"/><stop offset=".785" stop-color="#2C9F4E"/><stop offset="1" stop-color="#098C58"/></linearGradient><linearGradient id="d" x1="6.715" y1="17.401" x2="22.716" y2="17.401" gradientUnits="userSpaceOnUse"><stop offset=".118" stop-color="#7ACA37"/><stop offset=".256" stop-color="#70C53A"/><stop offset=".489" stop-color="#56B641"/><stop offset=".785" stop-color="#2C9F4E"/><stop offset="1" stop-color="#098C58"/></linearGradient><linearGradient id="e" x1="1.592" y1="21.08" x2="22.683" y2="21.08" gradientUnits="userSpaceOnUse"><stop offset=".118" stop-color="#7ACA37"/><stop offset=".256" stop-color="#70C53A"/><stop offset=".489" stop-color="#56B641"/><stop offset=".785" stop-color="#2C9F4E"/><stop offset="1" stop-color="#098C58"/></linearGradient><linearGradient id="f" x1="0" y1="25.356" x2="22.683" y2="25.356" gradientUnits="userSpaceOnUse"><stop offset=".118" stop-color="#7ACA37"/><stop offset=".256" stop-color="#70C53A"/><stop offset=".489" stop-color="#56B641"/><stop offset=".785" stop-color="#2C9F4E"/><stop offset="1" stop-color="#098C58"/></linearGradient><linearGradient id="g" x1="2.985" y1="26.147" x2="22.683" y2="26.147" gradientUnits="userSpaceOnUse"><stop offset=".118" stop-color="#7ACA37"/><stop offset=".256" stop-color="#70C53A"/><stop offset=".489" stop-color="#56B641"/><stop offset=".785" stop-color="#2C9F4E"/><stop offset="1" stop-color="#098C58"/></linearGradient><linearGradient id="h" x1="26.475" y1="19.675" x2="20.193" y2="35.533" gradientUnits="userSpaceOnUse"><stop offset=".118" stop-color="#7ACA37"/><stop offset=".256" stop-color="#70C53A"/><stop offset=".489" stop-color="#56B641"/><stop offset=".785" stop-color="#2C9F4E"/><stop offset="1" stop-color="#098C58"/></linearGradient><clipPath id="a"><path fill="#fff" d="M0 0h104.54v40H0z"/></clipPath></defs></svg>
